X: 1
T: Det kimer nu til Julefest [D]
O: Danmark
Z: John Chambers <jc:trillian.mit.edu>
M: 3/4
L: 1/4
K: D
F \
| "D"F2 F \
| D2 F \
| "A7"A>B A \
| "D"F2 F \
| "G"G2 "A7"E \
| "D"F2 D/E/ \
| F>G F \
| "A7"E2 E |
| EF G \
| "D"F2 F \
| "A7"EF G \
| "D"F2 "A7"A \
| "Bm"d2 F \
| "Em"E>F G \
| "A7"D2 C/E/ \
| "D"D2 |]
